svg/sms.svg

<?xml version="1.0" encoding="UTF-8"?>
<svg xmlns="http://www.w3.org/2000/svg" xmlns:xlink="http://www.w3.org/1999/xlink" width="32" height="32" viewBox="0 0 32 32">
<path fill-rule="nonzero" fill="rgb(0%, 0%, 0%)" fill-opacity="1" d="M 16 28 C 24.835938 28 32 22.179688 32 15 C 32 7.820312 24.835938 2 16 2 C 7.164062 2 0 7.820312 0 15 C 0 17.820312 1.105469 20.425781 2.980469 22.554688 C 2.863281 24.085938 2.269531 25.449219 1.644531 26.488281 C 1.359375 26.960938 1.042969 27.410156 0.695312 27.835938 C 0.59375 27.957031 0.492188 28.078125 0.386719 28.195312 C 0.351562 28.230469 0.324219 28.261719 0.304688 28.28125 L 0.289062 28.300781 C 0 28.582031 -0.0859375 29.015625 0.0742188 29.386719 C 0.230469 29.761719 0.59375 30.007812 1 30.007812 C 2.792969 30.007812 4.601562 29.449219 6.101562 28.800781 C 7.53125 28.175781 8.75 27.429688 9.492188 26.886719 C 11.578125 27.636719 13.78125 28.015625 16 28.007812 Z M 12.679688 11.050781 C 13.089844 10.914062 13.539062 11.054688 13.800781 11.398438 L 16 14.332031 L 18.199219 11.398438 C 18.460938 11.054688 18.910156 10.914062 19.320312 11.050781 C 19.730469 11.1875 20 11.570312 20 12 L 20 18 C 20 18.550781 19.550781 19 19 19 C 18.449219 19 18 18.550781 18 18 L 18 15 L 16.800781 16.601562 C 16.609375 16.851562 16.3125 16.996094 16 16.996094 C 15.6875 16.996094 15.390625 16.851562 15.199219 16.601562 L 14 15 L 14 18 C 14 18.550781 13.550781 19 13 19 C 12.449219 19 12 18.550781 12 18 L 12 12 C 12 11.570312 12.273438 11.1875 12.679688 11.050781 M 23.5 13.425781 L 23.5 13.449219 C 23.507812 13.457031 23.539062 13.5 23.636719 13.554688 C 23.882812 13.699219 24.238281 13.8125 24.78125 13.980469 L 24.820312 13.992188 C 25.28125 14.132812 25.898438 14.320312 26.394531 14.632812 C 26.960938 14.988281 27.480469 15.582031 27.492188 16.5 C 27.507812 17.4375 27.019531 18.125 26.382812 18.519531 C 25.789062 18.886719 25.074219 19.011719 24.460938 18.992188 C 23.699219 18.96875 22.980469 18.71875 22.425781 18.53125 C 22.335938 18.5 22.257812 18.476562 22.175781 18.445312 C 21.652344 18.269531 21.367188 17.703125 21.542969 17.179688 C 21.71875 16.660156 22.28125 16.378906 22.804688 16.550781 C 22.914062 16.585938 23.011719 16.617188 23.113281 16.648438 C 23.679688 16.84375 24.085938 16.980469 24.523438 16.992188 C 24.855469 17.007812 25.148438 16.929688 25.324219 16.820312 C 25.375 16.785156 25.421875 16.746094 25.457031 16.695312 C 25.46875 16.667969 25.492188 16.617188 25.492188 16.523438 L 25.492188 16.511719 C 25.492188 16.46875 25.492188 16.425781 25.324219 16.320312 C 25.085938 16.167969 24.726562 16.050781 24.199219 15.886719 L 24.125 15.863281 C 23.675781 15.726562 23.082031 15.550781 22.605469 15.261719 C 22.042969 14.925781 21.5 14.34375 21.5 13.425781 C 21.492188 12.476562 22.039062 11.820312 22.65625 11.449219 C 23.242188 11.105469 23.9375 10.980469 24.511719 10.988281 C 25.136719 11 25.742188 11.132812 26.257812 11.261719 C 26.789062 11.40625 27.105469 11.957031 26.960938 12.488281 C 26.894531 12.746094 26.726562 12.964844 26.496094 13.097656 C 26.265625 13.230469 25.992188 13.265625 25.738281 13.195312 C 25.28125 13.074219 24.855469 12.988281 24.480469 12.980469 C 24.175781 12.976562 23.867188 13.050781 23.675781 13.164062 C 23.617188 13.191406 23.5625 13.234375 23.523438 13.289062 C 23.511719 13.304688 23.5 13.335938 23.5 13.40625 Z M 6.5 13.425781 L 6.5 13.449219 C 6.507812 13.457031 6.539062 13.5 6.636719 13.554688 C 6.882812 13.699219 7.238281 13.8125 7.78125 13.980469 L 7.820312 13.992188 C 8.28125 14.132812 8.898438 14.320312 9.394531 14.632812 C 9.960938 14.988281 10.480469 15.582031 10.492188 16.5 C 10.507812 17.4375 10.019531 18.125 9.382812 18.519531 C 8.789062 18.886719 8.074219 19.011719 7.460938 18.992188 C 6.695312 18.96875 5.949219 18.710938 5.386719 18.519531 C 5.304688 18.492188 5.230469 18.46875 5.164062 18.445312 C 4.640625 18.269531 4.355469 17.703125 4.53125 17.179688 C 4.707031 16.660156 5.269531 16.378906 5.792969 16.550781 C 5.882812 16.582031 5.96875 16.605469 6.050781 16.636719 C 6.644531 16.835938 7.082031 16.988281 7.53125 17 C 7.863281 17.011719 8.15625 16.9375 8.332031 16.824219 C 8.382812 16.792969 8.429688 16.75 8.460938 16.699219 C 8.488281 16.648438 8.503906 16.589844 8.5 16.53125 L 8.5 16.519531 C 8.5 16.476562 8.5 16.429688 8.332031 16.324219 C 8.09375 16.175781 7.730469 16.054688 7.207031 15.894531 L 7.132812 15.867188 C 6.679688 15.730469 6.085938 15.554688 5.613281 15.269531 C 5.050781 14.9375 4.507812 14.355469 4.5 13.4375 C 4.492188 12.488281 5.039062 11.832031 5.65625 11.460938 C 6.242188 11.117188 6.9375 10.992188 7.511719 11 C 8.105469 11.007812 8.898438 11.132812 9.457031 11.273438 C 9.847656 11.378906 10.132812 11.710938 10.1875 12.109375 C 10.238281 12.511719 10.046875 12.90625 9.699219 13.109375 C 9.46875 13.242188 9.195312 13.277344 8.9375 13.207031 C 8.460938 13.085938 7.972656 13.011719 7.480469 12.992188 C 7.175781 12.988281 6.867188 13.0625 6.675781 13.175781 C 6.617188 13.207031 6.566406 13.25 6.523438 13.300781 C 6.503906 13.335938 6.496094 13.378906 6.5 13.417969 Z M 6.5 13.425781 "/>
</svg>

<svg role="img" viewBox="0 0 32 32" xmlns="http://www.w3.org/2000/svg"><path d="M16 28c8.836 0 16-5.82 16-13S24.836 2 16 2 0 7.82 0 15c0 2.82 1.105 5.426 2.98 7.555-.117 1.53-.71 2.894-1.335 3.933q-.429.71-.95 1.348-.151.182-.308.36c-.035.034-.063.066-.082.085l-.016.02a.98.98 0 0 0-.215 1.086c.156.375.52.62.926.62 1.793 0 3.602-.558 5.102-1.206 1.43-.625 2.648-1.371 3.39-1.914A19 19 0 0 0 16 28.007Zm-3.32-16.95c.41-.136.86.005 1.12.348l2.2 2.934 2.2-2.934c.26-.343.71-.484 1.12-.347.41.136.68.52.68.949v6c0 .55-.45 1-1 1s-1-.45-1-1v-3l-1.2 1.602a1.008 1.008 0 0 1-1.6 0L14 15v3c0 .55-.45 1-1 1s-1-.45-1-1v-6c0-.43.273-.812.68-.95m10.82 2.376v.023c.008.008.04.051.137.106.246.144.601.258 1.144.425l.04.012c.46.14 1.077.328 1.574.64.566.356 1.085.95 1.097 1.868.016.938-.472 1.625-1.11 2.02-.593.367-1.308.492-1.921.472-.762-.023-1.48-.273-2.035-.46-.09-.032-.168-.055-.25-.087a1 1 0 0 1-.633-1.265c.176-.52.738-.801 1.262-.63.11.036.207.067.308.098.567.196.973.332 1.41.344.332.016.625-.062.801-.172a.5.5 0 0 0 .133-.125c.012-.027.035-.078.035-.172v-.011c0-.043 0-.086-.168-.192-.238-.152-.597-.27-1.125-.433l-.074-.024c-.45-.136-1.043-.312-1.52-.601-.562-.336-1.105-.918-1.105-1.836-.008-.95.54-1.606 1.156-1.977.586-.344 1.282-.469 1.856-.46.625.011 1.23.144 1.746.273a1 1 0 0 1 .703 1.226.99.99 0 0 1-1.223.707c-.457-.12-.883-.207-1.258-.215-.304-.003-.613.07-.804.184a.4.4 0 0 0-.153.125c-.011.016-.023.047-.023.117Zm-17 0v.023c.008.008.04.051.137.106.246.144.601.258 1.144.425l.04.012c.46.14 1.077.328 1.574.64.566.356 1.085.95 1.097 1.868.016.938-.472 1.625-1.11 2.02-.593.367-1.308.492-1.921.472-.766-.023-1.512-.281-2.074-.472q-.123-.04-.223-.075a1 1 0 0 1-.633-1.265c.176-.52.739-.801 1.262-.63.09.032.176.055.258.087.594.199 1.031.351 1.48.363.332.012.625-.062.801-.176a.4.4 0 0 0 .129-.125.3.3 0 0 0 .039-.168v-.011c0-.043 0-.09-.168-.196-.238-.148-.602-.27-1.125-.43l-.074-.027c-.453-.137-1.047-.312-1.52-.597-.562-.332-1.105-.915-1.113-1.832-.008-.95.54-1.606 1.156-1.977.586-.344 1.282-.469 1.856-.461.593.008 1.386.133 1.945.273a1.005 1.005 0 0 1 .242 1.836 1 1 0 0 1-.761.098 7 7 0 0 0-1.458-.215c-.304-.004-.613.07-.804.184a.5.5 0 0 0-.153.125.2.2 0 0 0-.023.117Zm0 0"/></svg>
